src/lib/packages/icons/src/assets/filled/stopwatch-plus.svg

<svg width="24" height="24" viewBox="0 0 24 24" fill="none" xmlns="http://www.w3.org/2000/svg">
<path fill-rule="evenodd" clip-rule="evenodd" d="M8.25 3C8.25 2.586 8.586 2.25 9 2.25H14C14.414 2.25 14.75 2.586 14.75 3C14.75 3.414 14.414 3.75 14 3.75H9C8.586 3.75 8.25 3.414 8.25 3ZM19 13.5C19 17.642 15.642 21 11.5 21C7.358 21 4 17.642 4 13.5C4 9.358 7.358 6 11.5 6C13.173 6 14.712 6.55398 15.96 7.47998L17.47 5.96997C17.76 5.67997 18.24 5.67997 18.53 5.96997C18.82 6.25997 18.82 6.74003 18.53 7.03003L17.0701 8.48999C18.2661 9.81899 19 11.572 19 13.5ZM14.75 13.5C14.75 13.086 14.414 12.75 14 12.75H12.25V11C12.25 10.586 11.914 10.25 11.5 10.25C11.086 10.25 10.75 10.586 10.75 11V12.75H9C8.586 12.75 8.25 13.086 8.25 13.5C8.25 13.914 8.586 14.25 9 14.25H10.75V16C10.75 16.414 11.086 16.75 11.5 16.75C11.914 16.75 12.25 16.414 12.25 16V14.25H14C14.414 14.25 14.75 13.914 14.75 13.5Z" fill="currentColor"/>
</svg>

<svg xmlns="http://www.w3.org/2000/svg" width="24" height="24" fill="none"><path fill="currentColor" fill-rule="evenodd" d="M8.25 3A.75.75 0 0 1 9 2.25h5a.75.75 0 0 1 0 1.5H9A.75.75 0 0 1 8.25 3ZM19 13.5A7.5 7.5 0 1 1 11.5 6c1.673 0 3.212.554 4.46 1.48l1.51-1.51c.29-.29.77-.29 1.06 0 .29.29.29.77 0 1.06l-1.46 1.46A7.464 7.464 0 0 1 19 13.5Zm-4.25 0a.75.75 0 0 0-.75-.75h-1.75V11a.75.75 0 0 0-1.5 0v1.75H9a.75.75 0 0 0 0 1.5h1.75V16a.75.75 0 0 0 1.5 0v-1.75H14a.75.75 0 0 0 .75-.75Z" clip-rule="evenodd"/></svg>
